humanity-icon-theme/Humanity/actions/24/edit-redo.svg

<?xml version="1.0" encoding="UTF-8" standalone="no"?>
<!-- Created with Inkscape (http://www.inkscape.org/) -->

<svg
   xmlns:svg="http://www.w3.org/2000/svg"
   xmlns="http://www.w3.org/2000/svg"
   xmlns:xlink="http://www.w3.org/1999/xlink"
   version="1.1"
   width="24"
   height="24"
   id="svg3734">
  <defs
     id="defs3736">
    <linearGradient
       id="linearGradient3639">
      <stop
         id="stop3641"
         style="stop-color:#d7e866;stop-opacity:1"
         offset="0" />
      <stop
         id="stop3643"
         style="stop-color:#98b438;stop-opacity:1"
         offset="0.6440627" />
      <stop
         id="stop3645"
         style="stop-color:#a1ba49;stop-opacity:1"
         offset="1" />
    </linearGradient>
    <linearGradient
       id="linearGradient4456">
      <stop
         id="stop4458"
         style="stop-color:#e5f09a;stop-opacity:1"
         offset="0" />
      <stop
         id="stop4460"
         style="stop-color:#d7e866;stop-opacity:0"
         offset="1" />
    </linearGradient>
    <linearGradient
       id="linearGradient7012-661-145-733-759-865-745-661-970-94-1-0">
      <stop
         id="stop3618-1-9"
         style="stop-color:#d7e866;stop-opacity:1"
         offset="0" />
      <stop
         id="stop3270-5-6"
         style="stop-color:#98b438;stop-opacity:1"
         offset="0.64198196" />
      <stop
         id="stop3620-9-3"
         style="stop-color:#a1ba49;stop-opacity:1"
         offset="1" />
    </linearGradient>
    <linearGradient
       x1="-40.639648"
       y1="182.98172"
       x2="-46.993534"
       y2="198.19135"
       id="linearGradient4322"
       xlink:href="#linearGradient7012-661-145-733-759-865-745-661-970-94-1-0"
       gradientUnits="userSpaceOnUse"
       gradientTransform="matrix(0.92956783,0,0,0.99594396,51.30231,-181.73954)" />
    <linearGradient
       x1="-40.639648"
       y1="182.98172"
       x2="-46.993534"
       y2="198.19135"
       id="linearGradient4324"
       xlink:href="#linearGradient3639"
       gradientUnits="userSpaceOnUse"
       gradientTransform="matrix(0.92956783,0,0,0.99594396,51.30231,-181.73954)" />
    <linearGradient
       x1="5.5"
       y1="-3"
       x2="13"
       y2="16"
       id="linearGradient4462"
       xlink:href="#linearGradient4456"
       gradientUnits="userSpaceOnUse" />
    <linearGradient
       x1="5.5"
       y1="-3"
       x2="14.154163"
       y2="18.844189"
       id="linearGradient2839"
       xlink:href="#linearGradient4456"
       gradientUnits="userSpaceOnUse" />
  </defs>
  <g
     transform="matrix(-1,0,0,1,23.025,7)"
     id="layer1">
    <path
       d="M 7.75009,-0.6251675 2.5,4.99993 7.750153,10.624983"
       id="path3169-2-3"
       style="fill:none;stroke:#688c35;stroke-width:5;stroke-linecap:round;stroke-linejoin:round;stroke-miterlimit:4;stroke-opacity:1;stroke-dasharray:none;display:inline;enable-background:new" />
    <path
       d="M 19.025,10.281 16.5,6.625 C 15.913987,5.5474719 14.286755,5.0058052 13,5 l -6.5,-7e-5"
       id="path3765"
       style="fill:none;stroke:#688c35;stroke-width:6;stroke-linecap:round;stroke-linejoin:round;stroke-miterlimit:4;stroke-opacity:1;stroke-dasharray:none;display:inline;enable-background:new" />
    <path
       d="M 7.75009,-0.6251675 2.5,4.99993 7.750153,10.624983"
       id="path4277"
       style="fill:none;stroke:url(#linearGradient4322);stroke-width:3;stroke-linecap:round;stroke-linejoin:round;stroke-miterlimit:4;stroke-opacity:1;stroke-dasharray:none;display:inline;enable-background:new" />
    <path
       d="M 19.025,10.281 16.5,6.625 C 15.872767,5.7123523 14.410415,5.0058052 13,5 l -6.5,-7e-5"
       id="path4279"
       style="fill:none;stroke:url(#linearGradient4324);stroke-width:4;stroke-linecap:round;stroke-linejoin:round;stroke-miterlimit:4;stroke-opacity:1;stroke-dasharray:none;display:inline;enable-background:new" />
    <path
       d="M 8.227535,9.6038747 6.5,8 C 5.5,7 6.5,6.5 8,6.5 l 3.832441,-0.04122 c 1.245403,0.017784 3.161228,0.051221 3.696723,1.6075845 l 1.981554,2.5556465 c 0.650453,2.061006 3.819044,1.245673 2.885409,-1.3099737 L 18.168591,6.574063 C 17.324057,5.2314554 16.27468,3.9452074 14,3.5 l -5.5,0 C 7,3.5 5.5,3.5 6.5,2 L 8.1450948,0.43734542 c 1.5,-2.00000002 -0.5,-2.50000002 -1.5,-1.50000002 L 2,4 C 1.5,4.5 1.4724356,5.3333333 2,6 l 4.727535,5.103875 c 1,1 3,0 1.5,-1.5000003 z"
       id="path4454"
       style="opacity:0.4;fill:none;stroke:url(#linearGradient2839);stroke-width:1;stroke-linecap:round;stroke-linejoin:round;stroke-miterlimit:4;stroke-opacity:1;stroke-dasharray:none;display:inline;enable-background:new" />
    <path
       d="M 6.5,2 8.1450948,0.47856554 c 1.5,-2.00000004 -0.5,-2.50000004 -1.5,-1.50000004 L 2,4 C 1.5,4.5 1.4724356,5.3333333 2,6 l 4.7687552,5.227535 c 1,1 3,0 1.5,-1.5 L 6.5,8"
       id="path4464"
       style="opacity:0.4;fill:none;stroke:url(#linearGradient4462);stroke-width:1;stroke-linecap:round;stroke-linejoin:round;stroke-miterlimit:4;stroke-opacity:1;stroke-dasharray:none;display:inline;enable-background:new" />
    <path
       d="M 7.1397362,-1.5160758 2,4"
       id="path4466"
       style="opacity:0.5;fill:none;stroke:#e5f09a;stroke-width:1;stroke-linecap:round;stroke-linejoin:round;stroke-miterlimit:4;stroke-opacity:1;stroke-dasharray:none;display:inline;enable-background:new" />
  </g>
</svg>

<?xml version="1.0" encoding="UTF-8" standalone="no"?>
<!-- Created with Inkscape (http://www.inkscape.org/) -->
<svg id="svg3734" xmlns="http://www.w3.org/2000/svg" height="24" width="24" version="1.1" xmlns:xlink="http://www.w3.org/1999/xlink">
 <defs id="defs3736">
  <linearGradient id="linearGradient4456">
   <stop id="stop4458" style="stop-color:#e5f09a" offset="0"/>
   <stop id="stop4460" style="stop-color:#d7e866;stop-opacity:0" offset="1"/>
  </linearGradient>
  <linearGradient id="linearGradient4322" y2="198.19" gradientUnits="userSpaceOnUse" x2="-46.994" gradientTransform="matrix(.92957 0 0 .99594 51.302 -181.74)" y1="182.98" x1="-40.64">
   <stop id="stop3618-1-9" style="stop-color:#d7e866" offset="0"/>
   <stop id="stop3270-5-6" style="stop-color:#98b438" offset=".64198"/>
   <stop id="stop3620-9-3" style="stop-color:#a1ba49" offset="1"/>
  </linearGradient>
  <linearGradient id="linearGradient4324" y2="198.19" gradientUnits="userSpaceOnUse" x2="-46.994" gradientTransform="matrix(.92957 0 0 .99594 51.302 -181.74)" y1="182.98" x1="-40.64">
   <stop id="stop3641" style="stop-color:#d7e866" offset="0"/>
   <stop id="stop3643" style="stop-color:#98b438" offset=".64406"/>
   <stop id="stop3645" style="stop-color:#a1ba49" offset="1"/>
  </linearGradient>
  <linearGradient id="linearGradient4462" y2="16" xlink:href="#linearGradient4456" gradientUnits="userSpaceOnUse" x2="13" y1="-3" x1="5.5"/>
  <linearGradient id="linearGradient2839" y2="18.844" xlink:href="#linearGradient4456" gradientUnits="userSpaceOnUse" x2="14.154" y1="-3" x1="5.5"/>
 </defs>
 <g id="layer1" transform="matrix(-1,0,0,1,23.025,7)">
  <path id="path3169-2-3" style="stroke-linejoin:round;stroke-width:5;stroke:#688c35;stroke-linecap:round;enable-background:new;fill:none" d="m7.7501-0.62517-5.2501 5.6251 5.2502 5.6251"/>
  <path id="path3765" style="stroke-linejoin:round;stroke-width:6;stroke:#688c35;stroke-linecap:round;enable-background:new;fill:none" d="m19.025 10.281-2.525-3.656c-0.586-1.0775-2.213-1.6192-3.5-1.625l-6.5-0.00007"/>
  <path id="path4277" style="stroke-linejoin:round;stroke-width:3;stroke:url(#linearGradient4322);stroke-linecap:round;enable-background:new;fill:none" d="m7.7501-0.62517-5.2501 5.6251 5.2502 5.6251"/>
  <path id="path4279" style="stroke-linejoin:round;stroke-width:4;stroke:url(#linearGradient4324);stroke-linecap:round;enable-background:new;fill:none" d="m19.025 10.281-2.525-3.656c-0.627-0.9126-2.09-1.6192-3.5-1.625l-6.5-0.00007"/>
  <path id="path4454" style="opacity:.4;stroke-linejoin:round;stroke:url(#linearGradient2839);stroke-linecap:round;enable-background:new;fill:none" d="m8.2275 9.6039-1.7275-1.6039c-1-1 0-1.5 1.5-1.5l3.8324-0.04122c1.2454 0.017784 3.1612 0.051221 3.6967 1.6076l1.9816 2.5556c0.65045 2.061 3.819 1.2457 2.8854-1.31l-2.227-2.7379c-0.845-1.3426-1.894-2.6289-4.169-3.0741h-5.5c-1.5 0-3 0-2-1.5l1.6451-1.5626c1.5-2-0.5-2.5-1.5-1.5l-4.6451 5.0626c-0.5 0.5-0.5276 1.3333 0 2l4.7275 5.1039c1 1 3 0 1.5-1.5z"/>
  <path id="path4464" style="opacity:.4;stroke-linejoin:round;stroke:url(#linearGradient4462);stroke-linecap:round;enable-background:new;fill:none" d="m6.5 2 1.6451-1.5214c1.5-2-0.5-2.5-1.5-1.5l-4.6451 5.0214c-0.5 0.5-0.5276 1.3333 0 2l4.7688 5.2275c1 1 3 0 1.5-1.5l-1.7688-1.728"/>
  <path id="path4466" style="opacity:.5;stroke-linejoin:round;stroke:#e5f09a;stroke-linecap:round;enable-background:new;fill:none" d="m7.1397-1.5161-5.1397 5.5161"/>
 </g>
</svg>
